assets/Cactus/Flat/cactus_flat.svg

<svg width="32" height="32" viewBox="0 0 32 32" fill="none" xmlns="http://www.w3.org/2000/svg">
<path d="M11 7C11 4.24 13.24 2 16 2C18.76 2 21 4.24 21 7V13H22.32C23.25 13 24 12.25 24 11.32V8.5C24 7.12 25.12 6 26.5 6C27.88 6 29 7.12 29 8.5V11.32C29 15 26 18 22.32 18H21V29.06C21 29.58 20.58 30 20.06 30H11.94C11.42 30 11 29.58 11 29.06V25H9.68C5.99 25 3 22.01 3 18.32V11.5C3 10.14 4.09 9.03 5.45 9C6.85 8.97 8 10.15 8 11.55V18.32C8 19.25 8.75 20 9.68 20H11V7Z" fill="#86D72F"/>
<path d="M13 21.9999V2.99992C13.31 2.76992 13.64 2.56992 14 2.41992V29.9999H13V22.9999H9.68C7.1 22.9999 5 20.8999 5 18.3199V11.4999C5 11.2299 5.22 11.0099 5.49 10.9999H5.5C5.77 10.9999 6 11.2599 6 11.5499V18.3199C6 20.3499 7.65 21.9999 9.68 21.9999H13Z" fill="#44911B"/>
<path d="M18 29.9999H19V2.99992C18.69 2.76992 18.36 2.56992 18 2.41992V29.9999Z" fill="#44911B"/>
<path d="M26 6.04992C26.16 6.01992 26.33 5.99992 26.5 5.99992C26.67 5.99992 26.84 6.01992 27 6.04992V11.3199C27 13.8999 24.9 15.9999 22.32 15.9999H21V14.9999H22.32C24.35 14.9999 26 13.3499 26 11.3199V6.04992Z" fill="#44911B"/>
<path d="M19.44 3.84999L20.15 3.13999C20.35 2.93999 20.66 2.93999 20.86 3.13999C21.06 3.33999 21.06 3.64999 20.86 3.84999L20.15 4.55999C19.95 4.75999 19.64 4.75999 19.44 4.55999C19.24 4.36999 19.24 4.04999 19.44 3.84999Z" fill="#C3EF3C"/>
<path d="M11.5 9.99999H10.5C10.22 9.99999 10 9.77999 10 9.49999C10 9.21999 10.22 8.99999 10.5 8.99999H11.5C11.78 8.99999 12 9.21999 12 9.49999C12 9.77999 11.78 9.99999 11.5 9.99999Z" fill="#C3EF3C"/>
<path d="M11.85 3.14999L12.56 3.84999C12.76 4.04999 12.76 4.36999 12.56 4.56999C12.36 4.76999 12.05 4.76999 11.85 4.56999L11.14 3.85999C10.94 3.65999 10.94 3.34999 11.14 3.14999C11.34 2.94999 11.65 2.94999 11.85 3.14999Z" fill="#C3EF3C"/>
<path d="M27.15 15.44L27.86 16.15C28.06 16.35 28.06 16.66 27.86 16.86C27.66 17.06 27.35 17.06 27.15 16.86L26.44 16.15C26.24 15.95 26.24 15.64 26.44 15.44C26.63 15.24 26.95 15.24 27.15 15.44Z" fill="#C3EF3C"/>
<path d="M3.15 9.84999L3.85 10.56C4.05 10.76 4.37 10.76 4.57 10.56C4.77 10.36 4.77 10.05 4.57 9.84999L3.86 9.13999C3.66 8.93999 3.35 8.93999 3.15 9.13999C2.95 9.33999 2.95 9.64999 3.15 9.84999Z" fill="#C3EF3C"/>
<path d="M24.85 7.55999L24.14 6.84999C23.94 6.64999 23.94 6.33999 24.14 6.13999C24.34 5.93999 24.65 5.93999 24.85 6.13999L25.56 6.84999C25.76 7.04999 25.76 7.35999 25.56 7.55999C25.37 7.75999 25.05 7.75999 24.85 7.55999Z" fill="#C3EF3C"/>
<path d="M4.85 23.86L5.56 23.15C5.76 22.95 5.76 22.63 5.56 22.44C5.36 22.24 5.05 22.24 4.85 22.44L4.14 23.15C3.94 23.35 3.94 23.66 4.14 23.86C4.34 24.06 4.65 24.06 4.85 23.86Z" fill="#C3EF3C"/>
<path d="M7.44 14.85L8.15 14.14C8.35 13.94 8.66 13.94 8.86 14.14C9.06 14.34 9.06 14.65 8.86 14.85L8.15 15.56C7.95 15.76 7.64 15.76 7.44 15.56C7.24 15.37 7.24 15.05 7.44 14.85Z" fill="#C3EF3C"/>
<path d="M21.5 24H20.5C20.22 24 20 24.22 20 24.5C20 24.78 20.22 25 20.5 25H21.5C21.78 25 22 24.78 22 24.5C22 24.22 21.78 24 21.5 24Z" fill="#C3EF3C"/>
<path d="M11.5 27H10.5C10.22 27 10 26.78 10 26.5C10 26.22 10.22 26 10.5 26H11.5C11.78 26 12 26.22 12 26.5C12 26.78 11.78 27 11.5 27Z" fill="#C3EF3C"/>
<path d="M18 11H19.5C19.78 11 20 11.22 20 11.5C20 11.78 19.78 12 19.5 12H18V11Z" fill="#C3EF3C"/>
<path d="M12.19 16.15L14 18V16.56L12.9 15.44C12.7 15.24 12.39 15.24 12.19 15.44C11.99 15.64 11.99 15.95 12.19 16.15Z" fill="#C3EF3C"/>
<path d="M18.02 22.12L19.83 20.27C20.03 20.08 20.03 19.76 19.83 19.56C19.63 19.36 19.32 19.36 19.12 19.56L18.02 20.68V22.12Z" fill="#C3EF3C"/>
</svg>

<svg xmlns="http://www.w3.org/2000/svg" width="32" height="32" fill="none"><path fill="#86D72F" d="M11 7c0-2.76 2.24-5 5-5s5 2.24 5 5v6h1.32c.93 0 1.68-.75 1.68-1.68V8.5a2.5 2.5 0 0 1 5 0v2.82C29 15 26 18 22.32 18H21v11.06c0 .52-.42.94-.94.94h-8.12c-.52 0-.94-.42-.94-.94V25H9.68A6.68 6.68 0 0 1 3 18.32V11.5C3 10.14 4.09 9.03 5.45 9 6.85 8.97 8 10.15 8 11.55v6.77c0 .93.75 1.68 1.68 1.68H11V7Z"/><path fill="#44911B" d="M13 22V3c.31-.23.64-.43 1-.58V30h-1v-7H9.68C7.1 23 5 20.9 5 18.32V11.5c0-.27.22-.49.49-.5h.01c.27 0 .5.26.5.55v6.77C6 20.35 7.65 22 9.68 22H13ZM18 30h1V3c-.31-.23-.64-.43-1-.58V30ZM26 6.05c.16-.03.33-.05.5-.05.17 0 .34.02.5.05v5.27C27 13.9 24.9 16 22.32 16H21v-1h1.32c2.03 0 3.68-1.65 3.68-3.68V6.05Z"/><path fill="#C3EF3C" d="m19.44 3.85.71-.71c.2-.2.51-.2.71 0 .2.2.2.51 0 .71l-.71.71c-.2.2-.51.2-.71 0-.2-.19-.2-.51 0-.71ZM11.5 10h-1c-.28 0-.5-.22-.5-.5s.22-.5.5-.5h1c.28 0 .5.22.5.5s-.22.5-.5.5ZM11.85 3.15l.71.7c.2.2.2.52 0 .72-.2.2-.51.2-.71 0l-.71-.71c-.2-.2-.2-.51 0-.71.2-.2.51-.2.71 0ZM27.15 15.44l.71.71c.2.2.2.51 0 .71-.2.2-.51.2-.71 0l-.71-.71c-.2-.2-.2-.51 0-.71.19-.2.51-.2.71 0ZM3.15 9.85l.7.71c.2.2.52.2.72 0 .2-.2.2-.51 0-.71l-.71-.71c-.2-.2-.51-.2-.71 0-.2.2-.2.51 0 .71ZM24.85 7.56l-.71-.71c-.2-.2-.2-.51 0-.71.2-.2.51-.2.71 0l.71.71c.2.2.2.51 0 .71-.19.2-.51.2-.71 0ZM4.85 23.86l.71-.71c.2-.2.2-.52 0-.71-.2-.2-.51-.2-.71 0l-.71.71c-.2.2-.2.51 0 .71.2.2.51.2.71 0ZM7.44 14.85l.71-.71c.2-.2.51-.2.71 0 .2.2.2.51 0 .71l-.71.71c-.2.2-.51.2-.71 0-.2-.19-.2-.51 0-.71ZM21.5 24h-1c-.28 0-.5.22-.5.5s.22.5.5.5h1c.28 0 .5-.22.5-.5s-.22-.5-.5-.5ZM11.5 27h-1c-.28 0-.5-.22-.5-.5s.22-.5.5-.5h1c.28 0 .5.22.5.5s-.22.5-.5.5ZM18 11h1.5c.28 0 .5.22.5.5s-.22.5-.5.5H18v-1ZM12.19 16.15 14 18v-1.44l-1.1-1.12c-.2-.2-.51-.2-.71 0-.2.2-.2.51 0 .71ZM18.02 22.12l1.81-1.85c.2-.19.2-.51 0-.71-.2-.2-.51-.2-.71 0l-1.1 1.12v1.44Z"/></svg>
